icon-themes/sifr_svg/cmd/sc_printpreview.svg

<svg viewBox="0 0 16 16" xmlns="http://www.w3.org/2000/svg"><path d="m2 1v14h5v-2h-3v-10h5v3h3v1h2v-2l-4-4zm8.5 6c-1.9329966 0-3.5 1.5670034-3.5 3.5 0 1.932997 1.5670034 3.5 3.5 3.5.581108-.000302 1.152998-.145288 1.664062-.421875l2.392574 2.421875 1.443364-1.515273-2.423828-2.322618c.276953-.510306.422603-1.081495.423828-1.662109 0-1.9329966-1.567003-3.5-3.5-3.5zm0 2c.828427 0 1.5.6715729 1.5 1.5 0 .828427-.671573 1.5-1.5 1.5-.8284271 0-1.5-.671573-1.5-1.5 0-.8284271.6715729-1.5 1.5-1.5z" fill="#555753"/></svg>

<svg xmlns="http://www.w3.org/2000/svg" viewBox="0 0 16 16">
  <path
     style="fill:#555753"
     d="M 2,1 V 15 H 7 V 13 H 4 V 3 h 5 v 3 h 3 v 1 h 2 V 5 L 10,1 Z m 8.5,6 C 8.5670034,7 7,8.5670034 7,10.5 c 0,1.932997 1.5670034,3.5 3.5,3.5 0.581108,-3.02e-4 1.152998,-0.145288 1.664062,-0.421875 L 14.556636,16 16,14.484727 13.576172,12.162109 C 13.853125,11.651803 13.998775,11.080614 14,10.5 14,8.5670034 12.432997,7 10.5,7 Z m 0,2 C 11.328427,9 12,9.6715729 12,10.5 12,11.328427 11.328427,12 10.5,12 9.6715729,12 9,11.328427 9,10.5 9,9.6715729 9.6715729,9 10.5,9 Z"
     />
</svg>
